archdroid-icon-theme/Archdroid-BlueGreyDark/apps/scalable/addressbook.svg

<svg xmlns="http://www.w3.org/2000/svg" viewBox="0 0 48 48" fill="#263238"><path d="m40 0h-32v4h32v-4m-32 48h32v-4h-32v4m32-40h-32c-2.21 0-4 1.79-4 4v24c0 2.21 1.79 4 4 4h32c2.21 0 4-1.79 4-4v-24c0-2.21-1.79-4-4-4m-16 5.5c2.48 0 4.5 2.02 4.5 4.5 0 2.49-2.02 4.5-4.5 4.5-2.48 0-4.5-2.01-4.5-4.5 0-2.48 2.02-4.5 4.5-4.5zm10 20.5h-20v-3c0-3.33 6.67-5 10-5 3.33 0 10 1.67 10 5v3"/></svg>

<?xml version="1.0" encoding="UTF-8" standalone="no"?>
<svg
   xmlns:dc="http://purl.org/dc/elements/1.1/"
   xmlns:cc="http://creativecommons.org/ns#"
   xmlns:rdf="http://www.w3.org/1999/02/22-rdf-syntax-ns#"
   xmlns:svg="http://www.w3.org/2000/svg"
   xmlns="http://www.w3.org/2000/svg"
   xmlns:sodipodi="http://sodipodi.sourceforge.net/DTD/sodipodi-0.dtd"
   xmlns:inkscape="http://www.inkscape.org/namespaces/inkscape"
   width="48"
   height="48"
   viewBox="0 0 48 48"
   id="svg2"
   version="1.1"
   inkscape:version="0.91 r13725"
   sodipodi:docname="addressbook.svg"
   style="fill:#263238">
  <metadata
     id="metadata10">
    <rdf:RDF>
      <cc:Work
         rdf:about="">
        <dc:format>image/svg+xml</dc:format>
        <dc:type
           rdf:resource="http://purl.org/dc/dcmitype/StillImage" />
        <dc:title></dc:title>
      </cc:Work>
    </rdf:RDF>
  </metadata>
  <defs
     id="defs8" />
  <sodipodi:namedview
     pagecolor="#ffffff"
     bordercolor="#666666"
     borderopacity="1"
     objecttolerance="10"
     gridtolerance="10"
     guidetolerance="10"
     inkscape:pageopacity="0"
     inkscape:pageshadow="2"
     inkscape:window-width="836"
     inkscape:window-height="480"
     id="namedview6"
     showgrid="false"
     fit-margin-top="0"
     fit-margin-left="0"
     fit-margin-right="0"
     fit-margin-bottom="0"
     inkscape:showpageshadow="false"
     inkscape:zoom="4.916666666666666"
     inkscape:cx="20"
     inkscape:cy="23.99999999999999"
     inkscape:window-x="0"
     inkscape:window-y="30"
     inkscape:window-maximized="0"
     inkscape:current-layer="svg2" />
  <path
     d="M 40,0 8,0 8,4 40,4 40,0 Z M 8,48 40,48 40,44 8,44 8,48 Z M 40,8 8,8 C 5.79,8 4,9.789999999999999 4,12 l 0,24 c 0,2.21 1.79,4 4,4 l 32,0 c 2.21,0 4,-1.79 4,-4 L 44,12 C 44,9.789999999999999 42.21,8 40,8 Z m -16,5.5 c 2.48,0 4.5,2.02 4.5,4.5 0,2.49 -2.02,4.5 -4.5,4.5 -2.48,0 -4.5,-2.01 -4.5,-4.5 0,-2.48 2.02,-4.5 4.5,-4.5 z M 34,34 14,34 14,31 c 0,-3.33 6.67,-5 10,-5 3.33,0 10,1.67 10,5 l 0,3 z"
     id="path4"
     inkscape:connector-curvature="0" />
</svg>
